X:1
T:ໜາວໃຈ
T:ເນື້ອຮ້ອງ & ທຳນອງ : ປ. ຕຣີຈັນ ນັກຮ້ອງຕົ້ນສະບັບ : ຈັນສມອນ ສິນບັນດິດ
T:19??
T:© studiodavong
C:P. TRICHANH
Z:© studiodavong
L:1/8
Q:1/4=70
M:3/4
K:Ab
V:1 treble nm="Piano" snm="Pno."
V:1
"^Slow Waltz" z6 || %1
w: |
"Db""_(Intro) ________________________________________________________________________________" F3 G FC | %2
w: |
"Eb" E3 F EB, |"Ab" C3 A,"Eb" B,F, |"Fm" A,3 E, F,/G,/A,/B,/ |:"Fm""^A" F3 G FC/A,/ | %6
w: |||ລົມ ໜາວ ໂຊຍ ໂບຍ ສະ|
"Db" F,3 F, A,C |"Fm" F3 A GF |"Eb" E6 |"Db" F3 G FE/C/ |"Bbm" B,3 F, A,C |"Eb" E3 F GF | %12
w: ບັດ ແລ ດູ ທິວ|ທັດ ສວຍ ງາມ ວິ|ໄລ|ໜາວ ໜາວ ເຢັນ ເຂົ້າ ຫົວ|ໃຈ ຊ່າງ ບໍ່ ມີ|ໃຜ ສ່ອງ ເຫັນ ໃຈ|
"C7sus4"{F} C6 ||"Fm""^B" F3 G FC/A,/ |"Db" F,3 F, A,C |"Fm" F3 A GF |"Eb" E6 |"Db" F3 A CE | %18
w: ໄດ້...|ໜາວ ໜາວ ໃຈ ໃຈ ຈະ|ຂາດ ໂທ້ ທັມ ມະ|ຊາດ ຊ່າງ ໜາວ ຢູ່|ໄດ້|ລົມ ພັດ ຜ່ານ ຄັ້ງ|
"Bbm" B,3 F, A,C |"Eb" E2 FG C(A,/B,/) |"Ab" A,6 ||"Eb9""^C"{F} G3 A GE |"Db" F3 C F{E}C | %23
w: ໃດ ຈິດ ນ້ອງ ສັ່ນ|ສາຍ ໃຈ ນ້ອງ ແທບ ຂາດ- *|ຮອນ...|ຝີງ ໄຟ ກໍ ບໍ່|ຄາຍ ຫົ່ມ ຜ້າ ທົ່ວ|
"Ab" E2"Fm" FG FC |"C7" C6 |"Bb" =D3 F"F7" CE |"Bbm" B,3 E CB, |"Ab" A,2"Db"{A,} F,F, A,B, | %28
w: ກາຍ ໃຈ ນ້ອງ ຍັງ ອາ|ວອນ|ຈຶ່ງ ໄດ້ ແຕ່ ອ້ອນ|ວອນ ຂໍ ພອນ ເທ|ວາ ໄດ້ ເມຕ ຕາ ເອັນ|
"C7" C6 ||"Fm""^D" F3 G FC/A,/ |"Db" F,3 F, A,C |"Fm" F3 A GF |"Eb" E6 |"Db" F3 G FE | %34
w: ດູ...|ແມ່ນ ຊາຍ ໃດ ຍັງ ຢູ່|ປ່ຽວ ໂປຣດ ໄດ້ ແລ|ຫຼຽວ ຮັກ ມາ ຊື່ນ|ຊູ|ມາ ຮ່ວມ ຮຽງ ຄຽງ|
"Bbm"{E} B,3 F, A,C |"Eb" E2 GF CB,!dacoda! ||1"Ab""_(Solo verse A&B)" A,6 :|2O"Ab""^E" A,6- || %38
w: ຄູ່ ຢູ່ ຮ່ວມ ກັນ|ໄປ ໜາວ ໃຈ ຕ້ອງ ທະ|ລາຍ...|ລາຍ...|
"Fm" A,2"_(Coda) ______________________________________________________" z E, A,B, |"Ab" C3 A, CF | %40
w: ||
"Eb""_rall..." E2"Db"[Q:1/4=55] A2"C7"[Q:1/4=35] G2 |"Fm9" !fermata!F6!fine! |] %42
w: ||

